raw-svg/reply.svg

<svg viewBox="0 0 24 24" xmlns="http://www.w3.org/2000/svg"><path d="m14.55 15.59a.75.75 0 0 1 -.55-1.28l3.92-3.89-3.92-3.89a.75.75 0 0 1 0-1.06.75.75 0 0 1 1.06 0l4.46 4.42a.75.75 0 0 1 0 1.06l-4.46 4.42a.7.7 0 0 1 -.51.22z"/><path d="m5 18.75a.76.76 0 0 1 -.75-.75v-7.58a.76.76 0 0 1 .75-.75h14a.75.75 0 0 1 0 1.5h-13.25v6.83a.76.76 0 0 1 -.75.75z"/></svg>

<svg xmlns="http://www.w3.org/2000/svg" viewBox="0 0 24 24"><g id="reply"><path d="M14.55,15.59A.75.75,0,0,1,14,14.31l3.92-3.89L14,6.53a.75.75,0,0,1,0-1.06.75.75,0,0,1,1.06,0l4.46,4.42a.75.75,0,0,1,0,1.06l-4.46,4.42A.7.7,0,0,1,14.55,15.59Z"/><path d="M5,18.75A.76.76,0,0,1,4.25,18V10.42A.76.76,0,0,1,5,9.67H19a.75.75,0,0,1,0,1.5H5.75V18A.76.76,0,0,1,5,18.75Z"/></g></svg>
